media/images/frontend.svg

<svg xmlns="http://www.w3.org/2000/svg" xmlns:xlink="http://www.w3.org/1999/xlink" fill="none" version="1.1" width="48" height="48" viewBox="0 0 48 48"><defs><clipPath id="master_svg0_1_4644"><rect x="11.5" y="14" width="25" height="20" rx="0"/></clipPath></defs><g><rect x="0" y="0" width="48" height="48" rx="6" fill="#051527" fill-opacity="1" style="mix-blend-mode:passthrough"/><g><rect x="11.5" y="10" width="25" height="28" rx="0" fill="#000000" fill-opacity="0" style="mix-blend-mode:passthrough"/><g clip-path="url(#master_svg0_1_4644)"><g transform="matrix(1,0,0,-1,0,68.859375)"><g><path d="M26.851599999999998,54.390587499999995Q26.3438,54.5077875,25.875,54.2734875Q25.4453,54.0390875,25.289099999999998,53.531287500000005L20.28906,36.0312475Q20.17188,35.5234375,20.40625,35.0546875Q20.64062,34.6249995,21.14844,34.46875Q21.6562,34.3515625,22.125,34.5859375Q22.5547,34.8203125,22.710900000000002,35.3281255L27.7109,52.828087499999995Q27.8281,53.3358875,27.5938,53.8046875Q27.3594,54.2343875,26.851599999999998,54.390587499999995ZM29.9766,49.7030875Q29.625,49.3124875,29.625,48.8046875Q29.625,48.2968875,29.9766,47.9062875L33.4922,44.4296875L29.9766,40.9531275Q29.625,40.5624975,29.625,40.0546875Q29.625,39.5468775,29.9766,39.1562475Q30.3672,38.8046875,30.875,38.8046875Q31.3828,38.8046875,31.7734,39.1562475L36.148399999999995,43.5312475Q36.5,43.9218775,36.5,44.4296875Q36.5,44.9374875,36.148399999999995,45.3280875L31.7734,49.7030875Q31.3828,50.0546875,30.875,50.0546875Q30.3672,50.0546875,29.9766,49.7030875ZM18.02344,49.7030875Q17.63281,50.0546875,17.125,50.0546875Q16.61719,50.0546875,16.22656,49.7030875L11.851562,45.3280875Q11.5,44.9374875,11.5,44.4296875Q11.5,43.9218775,11.851562,43.5312475L16.22656,39.1562475Q16.61719,38.8046875,17.125,38.8046875Q17.63281,38.8046875,18.02344,39.1562475Q18.375,39.5468775,18.375,40.0546875Q18.375,40.5624975,18.02344,40.9531275L14.50781,44.4296875L18.02344,47.9062875Q18.375,48.2968875,18.375,48.8046875Q18.375,49.3124875,18.02344,49.7030875Z" fill="#FFFFFF" fill-opacity="1" style="mix-blend-mode:passthrough"/></g></g></g></g></g></svg>

<svg xmlns="http://www.w3.org/2000/svg" width="48" height="48" fill="none"><defs><clipPath id="a"><rect width="25" height="20" x="11.5" y="14" rx="0"/></clipPath></defs><rect width="48" height="48" fill="#051527" rx="6" style="mix-blend-mode:passthrough"/><rect width="25" height="28" x="11.5" y="10" fill="none" rx="0" style="mix-blend-mode:passthrough"/><g clip-path="url(#a)"><path fill="#FFF" d="M26.852 54.39q-.508.118-.977-.117-.43-.234-.586-.742l-5-17.5q-.117-.508.117-.976.235-.43.742-.586.508-.117.977.117.43.234.586.742l5 17.5q.117.508-.117.977-.235.43-.742.586m3.125-4.687q-.352-.39-.352-.898t.352-.899l3.515-3.476-3.515-3.477q-.352-.39-.352-.898t.352-.899q.39-.351.898-.351t.898.351l4.375 4.375q.352.39.352.899 0 .507-.352.898l-4.375 4.375q-.39.352-.898.352t-.898-.352m-11.954 0q-.39.352-.898.352t-.898-.352l-4.375-4.375q-.352-.39-.352-.898t.352-.899l4.375-4.375q.39-.351.898-.351t.898.351q.352.39.352.899 0 .507-.352.898l-3.515 3.477 3.515 3.476q.352.39.352.899 0 .507-.352.898" style="mix-blend-mode:passthrough" transform="matrix(1 0 0 -1 0 68.86)"/></g></svg>
